dist/icons/svgs/ban-solid.svg

<svg xmlns="http://www.w3.org/2000/svg" width="24" height="24" fill="currentcolor" class="icon-ban-solid" viewBox="0 0 24 24">
  <path d="M16.3359 18.1328L5.86719 7.66406C5.00781 8.91406 4.5 10.3984 4.5 12C4.5 16.1406 7.85938 19.5 12 19.5C13.6016 19.5 15.0859 18.9922 16.3359 18.1328ZM18.0938 16.375C18.9531 15.125 19.5 13.6406 19.5 12C19.5 7.85938 16.1406 4.5 12 4.5C10.3594 4.5 8.875 5.04688 7.625 5.90625L18.0938 16.375ZM2 12C2 8.44531 3.875 5.16406 7 3.36719C10.0859 1.57031 13.875 1.57031 17 3.36719C20.0859 5.16406 22 8.44531 22 12C22 15.5938 20.0859 18.875 17 20.6719C13.875 22.4688 10.0859 22.4688 7 20.6719C3.875 18.875 2 15.5938 2 12Z"/>
</svg>

<svg xmlns="http://www.w3.org/2000/svg" width="24" height="24" fill="currentColor" class="icon-ban-solid" viewBox="0 0 24 24">
  <path d="M16.336 18.133 5.867 7.664A7.6 7.6 0 0 0 4.5 12c0 4.14 3.36 7.5 7.5 7.5a7.6 7.6 0 0 0 4.336-1.367m1.758-1.758c.86-1.25 1.406-2.734 1.406-4.375 0-4.14-3.36-7.5-7.5-7.5-1.64 0-3.125.547-4.375 1.406zM2 12a9.93 9.93 0 0 1 5-8.633c3.086-1.797 6.875-1.797 10 0 3.086 1.797 5 5.078 5 8.633 0 3.594-1.914 6.875-5 8.672-3.125 1.797-6.914 1.797-10 0C3.875 18.875 2 15.594 2 12"/>
</svg>
